X:1
T:8 Lieder und Gesänge, Op.58
T:Schwermut
T:5. Schwermut
T:Johannes Brahms
T:Carl Candidus
T:8 Lieder und Gesänge, Op.58
T:Creative Commons copyright waiver (CC0 1.0 Universal) 
T:Creative Commons copyright waiver (CC0 1.0 Universal) 
C:Johannes Brahms
Z:Carl Candidus
Z:Creative Commons copyright waiver (CC0 1.0 Universal)
Z:
L:1/8
M:4/4
K:Gb
V:1 treble nm="Singstimme\nVoice"
V:1
 z8 | z8 | z8 | z8 | z4 z2 B2 | B6 B2 | e4 d4 | A4 z2 A2 | B6 c2 | c6 c2 | d6 e2 | e4 e2 z2 | %12
w: ||||Mir|ist so|weh ums|Herz, mir|ist als|ob ich|wei- nen|möch- te,|
 z4 f4 | B4 z4 | z8 | z8 | z4 G4 | G6 ^F2 | ^F4 z2 F2 | ^F6 =D2 | =D4 z4 | z4 =d4 || %22
w: Vor|Schmerz!|||Ge-|dan- ken-|satt und|le- bens-|matt|möcht|
[M:4/2] B4 =A4 A4 =G4 | (=G6 F2) E4 E4 | =E4 E4 _G4 G4 | c8 B4 B4- | B4 c4 d4 e4 | %27
w: ich das Haupt hin-|le- * gen in|* die Nacht der|Näch- te, in|* die Nacht der|
 (e4 B4- B4 =D4) | E4 z4 z4 z4 | z16 | z16 |] %31
w: Näch- * * *|te!|||

